assets/img/icons/warning.svg

<svg width="30" height="30" viewBox="0 0 30 30" fill="none" xmlns="http://www.w3.org/2000/svg">
<g clip-path="url(#clip0_257_1500)">
<path d="M13.268 3C14.0378 1.66667 15.9623 1.66667 16.7321 3L26.2583 19.5C27.0281 20.8333 26.0659 22.5 24.5263 22.5H5.47372C3.93412 22.5 2.97187 20.8333 3.74167 19.5L13.268 3Z" fill="#BA1A1A"/>
<path d="M14.0912 15.64L13.9372 9.08801H16.0932L15.9252 15.64H14.0912ZM15.0012 19.126C14.8052 19.126 14.6139 19.0793 14.4272 18.986C14.2405 18.8927 14.0865 18.7573 13.9652 18.58C13.8439 18.4027 13.7832 18.1833 13.7832 17.922C13.7832 17.6513 13.8392 17.4273 13.9512 17.25C14.0725 17.0727 14.2265 16.942 14.4132 16.858C14.5999 16.7647 14.8005 16.718 15.0152 16.718C15.3232 16.718 15.5985 16.8207 15.8412 17.026C16.0932 17.2313 16.2192 17.53 16.2192 17.922C16.2192 18.1833 16.1585 18.4027 16.0372 18.58C15.9252 18.7573 15.7759 18.8927 15.5892 18.986C15.4025 19.0793 15.2065 19.126 15.0012 19.126Z" fill="white"/>
</g>
<defs>
<clipPath id="clip0_257_1500">
<rect width="30" height="30" fill="white"/>
</clipPath>
</defs>
</svg>

<svg width="30" height="30" fill="none" xmlns="http://www.w3.org/2000/svg"><g clip-path="url(#a)"><path d="M13.268 3c.77-1.333 2.694-1.333 3.464 0l9.526 16.5c.77 1.333-.192 3-1.732 3H5.474c-1.54 0-2.502-1.667-1.732-3L13.268 3Z" fill="#BA1A1A"/><path d="m14.091 15.64-.154-6.552h2.156l-.168 6.552h-1.834Zm.91 3.486a1.27 1.27 0 0 1-1.036-.546 1.138 1.138 0 0 1-.182-.658c0-.27.056-.495.168-.672a1.1 1.1 0 0 1 .462-.392c.187-.093.387-.14.602-.14.308 0 .583.103.826.308.252.205.378.504.378.896 0 .261-.06.48-.182.658a1.105 1.105 0 0 1-.448.406c-.187.093-.383.14-.588.14Z" fill="#fff"/></g><defs><clipPath id="a"><path fill="#fff" d="M0 0h30v30H0z"/></clipPath></defs></svg>
